dist/svgs/unicons/line/vertical-distribution-center.svg

<svg xmlns="http://www.w3.org/2000/svg" viewBox="0 0 24 24"><path d="M21 15h-1v-2a1 1 0 00-1-1H5a1 1 0 00-1 1v2H3a1 1 0 000 2h1v2a1 1 0 001 1h14a1 1 0 001-1v-2h1a1 1 0 000-2zm-3 3H6v-4h12zM3 8h2v1a1 1 0 001 1h12a1 1 0 001-1V8h2a1 1 0 000-2h-2V5a1 1 0 00-1-1H6a1 1 0 00-1 1v1H3a1 1 0 000 2zm4-2h10v2H7z"/></svg>

<svg xmlns="http://www.w3.org/2000/svg" viewBox="0 0 24 24"><path d="M21,15H20V13a1,1,0,0,0-1-1H5a1,1,0,0,0-1,1v2H3a1,1,0,0,0,0,2H4v2a1,1,0,0,0,1,1H19a1,1,0,0,0,1-1V17h1a1,1,0,0,0,0-2Zm-3,3H6V14H18ZM3,8H5V9a1,1,0,0,0,1,1H18a1,1,0,0,0,1-1V8h2a1,1,0,0,0,0-2H19V5a1,1,0,0,0-1-1H6A1,1,0,0,0,5,5V6H3A1,1,0,0,0,3,8ZM7,6H17V8H7Z"/></svg>
